; generated by PrusaSlicer 2.6.0+win64 on 2024-06-05 at 16:11:22 UTC


;
;

;
;

;
;

;
;
; 

; external perimeters extrusion width = 0.45mm
; perimeters extrusion width = 0.45mm
; infill extrusion width = 0.45mm
; solid infill extrusion width = 0.45mm
; top infill extrusion width = 0.42mm
; support material extrusion width = 0.36mm
; first layer extrusion width = 0.50mm

; external perimeters extrusion width = 0.45mm
; perimeters extrusion width = 0.45mm
; infill extrusion width = 0.45mm
; solid infill extrusion width = 0.45mm
; top infill extrusion width = 0.42mm
; support material extrusion width = 0.36mm
; first layer extrusion width = 0.50mm

; external perimeters extrusion width = 0.45mm
; perimeters extrusion width = 0.45mm
; infill extrusion width = 0.45mm
; solid infill extrusion width = 0.45mm
; top infill extrusion width = 0.42mm
; support material extrusion width = 0.36mm
; first layer extrusion width = 0.50mm

M73 P0 R41
M201 X4000 Y4000 Z200 E2500 ; sets maximum accelerations, mm/sec^2
M203 X300 Y300 Z40 E100 ; sets maximum feedrates, mm / sec
M204 P4000 R1200 T4000 ; sets acceleration (P, T) and retract acceleration (R), mm/sec^2
M205 X8.00 Y8.00 Z2.00 E10.00 ; sets the jerk limits, mm/sec
M205 S0 T0 ; sets the minimum extruding and travel feed rate, mm/sec
;TYPE:Custom
M17 ; enable steppers
M862.1 P0.4 ; nozzle diameter check
M862.3 P "MK4" ; printer model check
M862.5 P2 ; g-code level check
M862.6 P"Input shaper" ; FW feature check
M115 U5.0.1+12089

M555 X82.471 Y53.6006 W68.3982 H97.0047

G90 ; use absolute coordinates
M83 ; extruder relative mode

M140 S60 ; set bed temp

M104 S170 ; set extruder temp for bed leveling
M109 R170 ; wait for temp


M84 E ; turn off E motor

G28 ; home all without mesh bed level

G1 X42 Y-4 Z5 F4800

M302 S160 ; lower cold extrusion limit to 160C


G1 E-2 F2400 ; retraction


M84 E ; turn off E motor

G29 P9 X10 Y-4 W32 H4

M106 S100

G0 Z40 F10000

M190 S60 ; wait for bed temp

M107

;
; MBL
;
M84 E ; turn off E motor
G29 P1 ; invalidate mbl & probe print area
G29 P1 X0 Y0 W50 H20 C ; probe near purge place
G29 P3.2 ; interpolate mbl probes
G29 P3.13 ; extrapolate mbl outside probe area
G29 A ; activate mbl

; prepare for purge
M104 S230
G0 X0 Y-4 Z15 F4800 ; move away and ready for the purge
M109 S230

G92 E0
M569 S0 E ; set spreadcycle mode for extruder

;
; Extrude purge line
;
G92 E0 ; reset extruder position
G1 E2 F2400 ; deretraction after the initial one before nozzle cleaning
G0 E7 X15 Z0.2 F500 ; purge
G0 X25 E4 F500 ; purge
G0 X35 E4 F650 ; purge
G0 X45 E4 F800 ; purge
G0 X48 Z0.05 F8000 ; wipe, move close to the bed
G0 X51 Z0.2 F8000 ; wipe, move quickly away from the bed

G92 E0
M221 S100 ; set flow to 100%
G21 ; set units to millimeters
G90 ; use absolute coordinates
M83 ; use relative distances for extrusion
M900 K0.05 ; Filament gcode


M572 S0.038 ; Filament gcode


M142 S36 ; set heatbreak target temp
M107
;LAYER_CHANGE
;Z:0.2
;HEIGHT:0.2
;BEFORE_LAYER_CHANGE
G92 E0.0
;0.2
M201 X4000 Y4000
M74 W0

G1 E-.7 F2100
G1 Z.2 F720
;AFTER_LAYER_CHANGE
;0.2
G1 Z.4
M204 T4000
G1 X84.138 Y60.754 F18000
G1 Z.2 F720
G1 E.7 F2100
M204 P500
;TYPE:Skirt/Brim
;WIDTH:0.5
G1 F2400
G1 X84.678 Y60.206 E.02924
G1 X85.352 Y59.723 E.03151
G1 X86.044 Y59.405 E.02894
G1 X86.759 Y59.204 E.02823
G1 X96.371 Y59.152 E.36532
G1 X96.981 Y58.762 E.02752
G1 X97.771 Y58.437 E.03247
G1 X98.74 Y58.259 E.03744
G1 X140.999 Y58.27 E1.60611
G1 X141.865 Y58.417 E.03338
G1 X142.685 Y58.734 E.03341
G1 X143.405 Y59.196 E.03251
G1 X144.031 Y59.789 E.03277
G1 X144.52 Y60.464 E.03168
G1 X144.882 Y61.246 E.03275
G1 X145.114 Y62.382 E.04407
G1 X145.058 Y72.88 E.399
G1 X144.858 Y73.595 E.02822
G1 X144.54 Y74.287 E.02894
G1 X144.104 Y74.905 E.02874
G1 X143.58 Y75.442 E.02852
G1 X142.643 Y76.068 E.04283
G1 X142.07 Y76.301 E.02351
G1 X141.469 Y76.458 E.02361
G1 X98.742 Y76.524 E1.6239
G1 X97.772 Y76.347 E.03747
G1 X96.983 Y76.022 E.03243
G1 X96.372 Y75.631 E.02757
G1 X86.942 Y75.603 E.3584
G1 X86.192 Y75.431 E.02924
G1 X85.452 Y75.114 E.0306
G1 X84.73 Y74.621 E.03323
G1 X84.186 Y74.085 E.02903
G1 X83.719 Y73.437 E.03036
G1 X83.381 Y72.71 E.03047
G1 X83.179 Y71.985 E.0286
G1 X83.166 Y62.908 E.34498
G1 X83.328 Y62.224 E.02672
G1 X83.613 Y61.539 E.0282
G1 X84.105 Y60.804 E.03362
M204 P4000
G1 X84.485 Y61.058 F18000
M204 P500
G1 F2400
G1 X84.989 Y60.542 E.02741
G1 X85.563 Y60.129 E.02688
G1 X86.218 Y59.828 E.0274
G1 X86.851 Y59.653 E.02496
G1 X96.541 Y59.608 E.36829
G1 X96.649 Y59.517 E.00537
G1 X97.176 Y59.176 E.02386
G1 X97.923 Y58.869 E.03069
G1 X98.76 Y58.716 E.03234
G1 X140.979 Y58.727 E1.60459
G1 X141.763 Y58.863 E.03024
G1 X142.496 Y59.151 E.02993
G1 X143.137 Y59.567 E.02904
G1 X143.699 Y60.104 E.02954
G1 X144.136 Y60.712 E.02846
G1 X144.455 Y61.411 E.0292
G1 X144.656 Y62.404 E.03851
G1 X144.61 Y72.788 E.39466
G1 X144.435 Y73.421 E.02496
G1 X144.134 Y74.076 E.0274
G1 X143.743 Y74.624 E.02559
G1 X143.271 Y75.104 E.02559
G1 X142.45 Y75.653 E.03754
G1 X141.913 Y75.871 E.02203
G1 X141.383 Y76.008 E.02081
G1 X98.762 Y76.067 E1.61987
G1 X97.924 Y75.915 E.03237
G1 X97.177 Y75.607 E.03071
G1 X96.65 Y75.266 E.02386
G1 X96.541 Y75.175 E.0054
G1 X86.97 Y75.146 E.36376
G1 X86.319 Y74.991 E.02543
G1 X85.654 Y74.703 E.02754
G1 X85.035 Y74.28 E.02849
G1 X84.545 Y73.802 E.02602
G1 X84.103 Y73.188 E.02875
G1 X83.805 Y72.537 E.02721
G1 X83.632 Y71.909 E.02476
G1 X83.623 Y62.937 E.34099
G1 X83.768 Y62.35 E.02298
G1 X84.006 Y61.774 E.02369
G1 X84.451 Y61.108 E.03044
M204 P4000
G1 X84.831 Y61.362 F18000
M204 P500
G1 F2400
G1 X84.872 Y61.301 E.00279
G1 X85.297 Y60.88 E.02274
G1 X85.775 Y60.535 E.0224
G1 X86.391 Y60.251 E.02578
G1 X86.941 Y60.102 E.02166
G1 X96.725 Y60.065 E.37186
G1 X96.918 Y59.888 E.00995
G1 X97.405 Y59.572 E.02206
G1 X98.072 Y59.301 E.02736
G1 X98.78 Y59.173 E.02734
G1 X140.96 Y59.184 E1.60311
G1 X141.618 Y59.297 E.02537
G1 X142.306 Y59.567 E.02809
G1 X142.867 Y59.936 E.02552
G1 X143.366 Y60.417 E.02634
G1 X143.75 Y60.957 E.02518
G1 X144.028 Y61.575 E.02575
G1 X144.199 Y62.425 E.03295
G1 X144.161 Y72.698 E.39044
G1 X144.011 Y73.247 E.02163
G1 X143.728 Y73.864 E.0258
G1 X143.383 Y74.341 E.02237
G1 X142.962 Y74.766 E.02274
G1 X142.255 Y75.239 E.03233
G1 X141.783 Y75.433 E.0194
G1 X141.297 Y75.558 E.01907
G1 X98.781 Y75.61 E1.61588
G1 X98.073 Y75.482 E.02734
G1 X97.406 Y75.211 E.02736
G1 X96.919 Y74.896 E.02204
G1 X96.726 Y74.718 E.00998
G1 X87 Y74.689 E.36965
G1 X86.448 Y74.552 E.02162
G1 X85.893 Y74.314 E.02295
G1 X85.31 Y73.915 E.02685
G1 X84.88 Y73.49 E.02298
G1 X84.509 Y72.977 E.02406
G1 X84.228 Y72.365 E.02559
G1 X84.081 Y71.819 E.02149
G1 X84.08 Y62.967 E.33643
G1 X84.206 Y62.481 E.01908
G1 X84.399 Y62.009 E.01938
G1 X84.798 Y61.412 E.02729
M204 P4000
G1 X85.174 Y61.663 F18000
M204 P500
G1 F2400
G1 X85.21 Y61.609 E.00247
G1 X85.606 Y61.218 E.02115
G1 X86.021 Y60.92 E.01942
G1 X86.561 Y60.676 E.02252
G1 X87.03 Y60.551 E.01845
G1 X96.912 Y60.521 E.37558
G1 X97.189 Y60.257 E.01454
G1 X97.602 Y59.986 E.01877
G1 X98.18 Y59.746 E.02379
G1 X98.802 Y59.631 E.02404
G1 X140.939 Y59.641 E1.60147
G1 X141.514 Y59.743 E.02219
G1 X142.113 Y59.982 E.02451
G1 X142.595 Y60.304 E.02203
G1 X143.031 Y60.729 E.02314
G1 X143.362 Y61.201 E.02191
G1 X143.6 Y61.736 E.02225
G1 X143.742 Y62.447 E.02756
G1 X143.711 Y72.609 E.38622
G1 X143.587 Y73.077 E.0184
G1 X143.342 Y73.617 E.02254
G1 X143.045 Y74.033 E.01943
G1 X142.654 Y74.428 E.02112
G1 X142.059 Y74.826 E.02721
G1 X141.653 Y74.994 E.0167
G1 X141.21 Y75.109 E.01739
G1 X98.803 Y75.153 E1.61174
G1 X98.181 Y75.038 E.02404
G1 X97.602 Y74.798 E.02382
G1 X97.189 Y74.527 E.01877
G1 X96.912 Y74.262 E.01457
G1 X87.032 Y74.232 E.3755
G1 X86.581 Y74.115 E.01771
G1 X86.133 Y73.923 E.01852
G1 X85.586 Y73.55 E.02516
G1 X85.216 Y73.18 E.01989
G1 X84.915 Y72.766 E.01945
G1 X84.652 Y72.193 E.02396
G1 X84.53 Y71.732 E.01812
G1 X84.53 Y63.053 E.32986
G1 X84.644 Y62.611 E.01735
G1 X84.813 Y62.205 E.01671
G1 X85.141 Y61.713 E.02247
M204 P4000
G1 X85.517 Y61.965 F18000
M204 P500
G1 F2400
G1 X85.55 Y61.916 E.00225
G1 X85.89 Y61.576 E.01827
G1 X86.232 Y61.327 E.01608
G1 X86.731 Y61.101 E.02082
G1 X87.116 Y61.001 E.01512
G1 X97.101 Y60.978 E.37949
G1 X97.462 Y60.623 E.01924
G1 X97.801 Y60.397 E.01548
G1 X98.292 Y60.19 E.02025
G1 X98.824 Y60.088 E.02059
G1 X140.917 Y60.098 E1.5998
G1 X141.407 Y60.188 E.01893
G1 X141.917 Y60.396 E.02093
G1 X142.32 Y60.669 E.0185
G1 X142.693 Y61.038 E.01994
G1 X142.973 Y61.441 E.01865
G1 X143.171 Y61.895 E.01882
G1 X143.285 Y62.468 E.0222
G1 X143.262 Y72.523 E.38215
G1 X143.162 Y72.907 E.01508
M73 P1 R41
G1 X142.936 Y73.406 E.02082
G1 X142.687 Y73.748 E.01608
G1 X142.347 Y74.089 E.0183
G1 X141.863 Y74.412 E.02212
G1 X141.493 Y74.566 E.01523
G1 X141.126 Y74.659 E.01439
G1 X98.825 Y74.696 E1.60771
G1 X98.292 Y74.594 E.02062
G1 X97.802 Y74.386 E.02023
G1 X97.463 Y74.16 E.01548
G1 X97.101 Y73.805 E.01927
G1 X87.117 Y73.783 E.37946
G1 X86.744 Y73.687 E.01464
G1 X86.333 Y73.512 E.01698
G1 X85.894 Y73.212 E.02021
G1 X85.553 Y72.87 E.01836
G1 X85.3 Y72.519 E.01644
G1 X85.078 Y72.025 E.02058
G1 X84.98 Y71.647 E.01484
G1 X84.98 Y63.138 E.3234
G1 X85.073 Y62.77 E.01443
G1 X85.226 Y62.4 E.01522
G1 X85.484 Y62.014 E.01765
M204 P4000
G1 X85.86 Y62.266 F18000
M204 P500
G1 F2400
G1 X85.889 Y62.224 E.00194
G1 X86.202 Y61.911 E.01682
G1 X86.443 Y61.733 E.01139
G1 X86.9 Y61.526 E.01907
G1 X87.199 Y61.451 E.01172
G1 X97.292 Y61.435 E.3836
G1 X97.739 Y60.988 E.02403
G1 X98.004 Y60.807 E.0122
G1 X98.407 Y60.633 E.01668
G1 X98.847 Y60.545 E.01705
G1 X140.895 Y60.555 E1.59809
G1 X141.297 Y60.632 E.01556
G1 X141.717 Y60.807 E.01729
G1 X142.041 Y61.032 E.01499
G1 X142.354 Y61.345 E.01682
G1 X142.582 Y61.679 E.01537
G1 X142.741 Y62.052 E.01541
G1 X142.828 Y62.49 E.01697
G1 X142.812 Y72.44 E.37816
G1 X142.737 Y72.738 E.01168
G1 X142.53 Y73.196 E.0191
G1 X142.352 Y73.437 E.01139
G1 X142.039 Y73.75 E.01682
G1 X141.667 Y73.999 E.01701
G1 X141.335 Y74.136 E.01365
G1 X141.044 Y74.208 E.01139
G1 X98.848 Y74.238 E1.60372
G1 X98.407 Y74.151 E.01708
G1 X98.005 Y73.976 E.01666
G1 X97.739 Y73.796 E.01221
G1 X97.292 Y73.348 E.02405
G1 X87.199 Y73.332 E.3836
G1 X86.906 Y73.259 E.01148
G1 X86.533 Y73.1 E.01541
G1 X86.203 Y72.874 E.0152
G1 X85.89 Y72.561 E.01682
G1 X85.687 Y72.274 E.01336
G1 X85.504 Y71.86 E.0172
G1 X85.43 Y71.564 E.0116
G1 X85.43 Y63.22 E.31712
G1 X85.502 Y62.928 E.01143
G1 X85.64 Y62.596 E.01366
G1 X85.827 Y62.316 E.0128
M204 P4000
G1 X86.203 Y62.567 F18000
M204 P500
G1 F2400
G1 X86.511 Y62.247 E.01688
G1 X86.69 Y62.118 E.00839
G1 X87.064 Y61.953 E.01554
G1 X87.278 Y61.902 E.00836
G1 X97.549 Y61.892 E.39036
G1 X97.694 Y61.678 E.00982
G1 X98.045 Y61.328 E.01884
G1 X98.237 Y61.201 E.00875
G1 X98.563 Y61.063 E.01345
G1 X98.869 Y61.002 E.01186
G1 X140.871 Y61.012 E1.59634
G1 X141.181 Y61.075 E.01202
G1 X141.514 Y61.217 E.01376
G1 X141.732 Y61.369 E.0101
G1 X142.014 Y61.652 E.01518
G1 X142.188 Y61.912 E.01189
G1 X142.31 Y62.205 E.01206
G1 X142.371 Y62.512 E.0119
G1 X142.361 Y72.361 E.37432
G1 X142.31 Y72.575 E.00836
G1 X142.144 Y72.949 E.01555
G1 X142.015 Y73.127 E.00835
G1 X141.732 Y73.411 E.01524
G1 X141.471 Y73.585 E.01192
G1 X141.177 Y73.707 E.0121
G1 X140.965 Y73.758 E.00829
G1 X98.87 Y73.781 E1.59988
G1 X98.563 Y73.72 E.0119
G1 X98.238 Y73.582 E.01342
G1 X98.045 Y73.455 E.00878
G1 X97.695 Y73.105 E.01881
G1 X97.549 Y72.891 E.00985
G1 X87.278 Y72.881 E.39036
G1 X87.066 Y72.831 E.00828
G1 X86.734 Y72.689 E.01372
G1 X86.511 Y72.536 E.01028
G1 X86.228 Y72.253 E.01521
G1 X86.076 Y72.034 E.01013
G1 X85.933 Y71.7 E.01381
G1 X85.881 Y71.485 E.00841
G1 X85.881 Y63.298 E.31116
G1 X85.932 Y63.086 E.00829
G1 X86.054 Y62.792 E.0121
G1 X86.17 Y62.617 E.00798
M204 P4000
G1 X86.547 Y62.869 F18000
M204 P500
G1 F2400
G1 X86.82 Y62.585 E.01497
G1 X86.931 Y62.507 E.00516
G1 X87.222 Y62.382 E.01204
G1 X87.352 Y62.353 E.00506
G1 X97.861 Y62.349 E.39941
G1 X97.966 Y62.095 E.01045
G1 X98.038 Y61.981 E.00512
G1 X98.348 Y61.671 E.01666
G1 X98.462 Y61.599 E.00512
G1 X98.716 Y61.494 E.01045
G1 X98.892 Y61.459 E.00682
G1 X140.849 Y61.469 E1.59463
G1 X141.023 Y61.504 E.00675
G1 X141.311 Y61.628 E.01192
G1 X141.422 Y61.706 E.00516
G1 X141.675 Y61.959 E.0136
G1 X141.775 Y62.108 E.00682
G1 X141.879 Y62.359 E.01033
G1 X141.914 Y62.535 E.00682
G1 X141.909 Y72.287 E.37064
G1 X141.88 Y72.417 E.00506
G1 X141.756 Y72.708 E.01202
G1 X141.677 Y72.819 E.00518
G1 X141.425 Y73.072 E.01357
G1 X141.276 Y73.171 E.0068
G1 X141.022 Y73.277 E.01046
G1 X140.891 Y73.306 E.0051
G1 X98.892 Y73.324 E1.59623
G1 X98.716 Y73.289 E.00682
G1 X98.463 Y73.184 E.01041
G1 X98.349 Y73.112 E.00512
G1 X98.039 Y72.802 E.01666
G1 X97.967 Y72.689 E.00509
G1 X97.861 Y72.434 E.0105
G1 X87.352 Y72.43 E.39941
G1 X87.22 Y72.4 E.00514
G1 X86.967 Y72.295 E.01041
G1 X86.818 Y72.196 E.0068
G1 X86.565 Y71.943 E.0136
G1 X86.487 Y71.832 E.00516
G1 X86.362 Y71.541 E.01204
G1 X86.333 Y71.411 E.00506
G1 X86.333 Y63.372 E.30553
G1 X86.362 Y63.241 E.0051
G1 X86.467 Y62.987 E.01045
G1 X86.513 Y62.919 E.00312
M204 P4000
G1 X86.89 Y63.17 F18000
M204 P500
G1 F2400
G1 X87.125 Y62.927 E.01285
G1 X87.162 Y62.902 E.0017
G1 X87.416 Y62.806 E.01032
G1 X98.257 Y62.806 E.41203
G1 X98.295 Y62.495 E.01191
G1 X98.404 Y62.256 E.00998
G1 X98.66 Y62.012 E.01344
G1 X98.914 Y61.916 E.01032
G1 X140.826 Y61.927 E1.59292
G1 X141.08 Y62.022 E.01031
G1 X141.336 Y62.266 E.01344
G1 X141.361 Y62.304 E.00173
G1 X141.457 Y62.557 E.01028
G1 X141.457 Y72.223 E.36737
G1 X141.361 Y72.476 E.01028
G1 X141.117 Y72.733 E.01347
G1 X140.87 Y72.845 E.01031
G1 X140.826 Y72.853 E.0017
G1 X98.915 Y72.867 E1.59288
G1 X98.661 Y72.772 E.01031
G1 X98.404 Y72.528 E.01347
G1 X98.296 Y72.289 E.00997
G1 X98.257 Y71.977 E.01195
M73 P1 R40
G1 X87.416 Y71.977 E.41203
G1 X87.372 Y71.968 E.00171
G1 X87.125 Y71.857 E.01029
G1 X86.881 Y71.6 E.01347
G1 X86.785 Y71.346 E.01032
G1 X86.785 Y63.437 E.30059
G1 X86.864 Y63.224 E.00863
M204 P4000
G1 X87.277 Y63.421 F18000
M204 P500
G1 F2400
G1 X87.4 Y63.298 E.00661
G1 X87.484 Y63.263 E.00346
G1 X98.74 Y63.263 E.4278
G1 X98.74 Y62.615 E.02463
G1 X98.775 Y62.531 E.00346
G1 X98.898 Y62.408 E.00661
G1 X98.982 Y62.373 E.00346
G1 X140.758 Y62.384 E1.58775
G1 X140.842 Y62.418 E.00344
G1 X140.965 Y62.541 E.00661
G1 X141 Y62.625 E.00346
G1 X141 Y72.155 E.3622
G1 X140.965 Y72.239 E.00346
G1 X140.842 Y72.362 E.00661
G1 X140.758 Y72.396 E.00344
G1 X98.982 Y72.41 E1.58775
G1 X98.898 Y72.375 E.00346
G1 X98.775 Y72.252 E.00661
G1 X98.741 Y72.168 E.00344
G1 X98.74 Y71.52 E.02463
G1 X87.484 Y71.52 E.4278
G1 X87.4 Y71.485 E.00346
G1 X87.277 Y71.362 E.00661
G1 X87.242 Y71.278 E.00346
G1 X87.242 Y63.505 E.29542
G1 X87.254 Y63.476 E.00119
M204 P4000
G1 E-.7 F2100
G1 Z.4 F720
G1 X90.81 Y96.686 F18000
G1 Z.2 F720
G1 E.7 F2100
M204 P500
G1 F2400
G1 X99.971 Y96.686 E.34818
G1 X100.515 Y96.335 E.02461
G1 X101.257 Y96.022 E.03061
G1 X102.275 Y95.828 E.03939
G1 X118.91 Y95.797 E.63224
G1 X134.548 Y95.81 E.59434
G1 X135.624 Y96.023 E.04169
G1 X136.427 Y96.382 E.03343
G1 X137.14 Y96.896 E.03341
G1 X137.73 Y97.519 E.03261
G1 X138.187 Y98.228 E.03206
G1 X138.503 Y99.042 E.03319
G1 X138.656 Y99.926 E.0341
G1 X138.604 Y110.406 E.39831
G1 X138.447 Y111.006 E.02357
G1 X138.214 Y111.581 E.02358
G1 X137.541 Y112.567 E.04537
G1 X136.726 Y113.294 E.04151
G1 X136.09 Y113.65 E.0277
G1 X135.37 Y113.916 E.02917
G1 X134.522 Y114.05 E.03263
G1 X118.414 Y114.063 E.61221
G1 X102.274 Y114.032 E.61342
G1 X101.257 Y113.837 E.03936
G1 X100.515 Y113.524 E.03061
G1 X99.965 Y113.168 E.0249
G1 X90.429 Y113.133 E.36243
G1 X89.747 Y112.971 E.02664
G1 X89.142 Y112.728 E.02478
G1 X88.155 Y112.055 E.0454
G1 X87.429 Y111.239 E.04151
G1 X87.073 Y110.603 E.0277
G1 X86.807 Y109.882 E.02921
G1 X86.673 Y109.028 E.03285
G1 X86.725 Y100.33 E.33058
G1 X86.882 Y99.73 E.02357
G1 X87.116 Y99.155 E.02359
G1 X87.79 Y98.168 E.04542
G1 X88.605 Y97.442 E.04148
G1 X89.241 Y97.086 E.0277
G1 X89.962 Y96.82 E.02921
G1 X90.751 Y96.696 E.03036
M204 P4000
G1 X90.821 Y97.145 F18000
M204 P500
G1 F2400
G1 X100.107 Y97.143 E.35293
G1 X100.713 Y96.748 E.02749
G1 X101.412 Y96.453 E.02884
G1 X102.297 Y96.285 E.03424
G1 X118.911 Y96.254 E.63144
